X: 872
T: the Charming Young Widow
B: O'Neill's 1850 #872
O: F.O'Neill
Z: Dan G. Petersen, dangp@post6.tele.dk
M: 6/8
L: 1/8
K: D
A |\
Add dcd | efg afd | Add dcd | edc d2c |\
Add dcd | efg aga | bab afd | {a}gec d2 :|
|: A |\
dfa afd | Bgf gec | dcd Bgd | edc d2A |\
dfa afd | Bgf gec | dBF DFA | Bec d2 :|
